hungary/image/logo-bt.svg

<svg xmlns="http://www.w3.org/2000/svg" viewBox="0 0 232 55" style="enable-background:new 0 0 232 55" xml:space="preserve"><path d="M229 10.8v33.4c0 4.4-3.6 8-8 8H10.6c-4.4 0-8-3.6-8-8V10.8c0-4.4 3.6-8 8-8h210.5c4.4 0 7.9 3.6 7.9 8z" style="fill-rule:evenodd;clip-rule:evenodd;fill:#aa182c"/><path d="M10.7 51.3c-3.9 0-7.1-3.2-7.1-7.1V10.8c0-3.9 3.2-7.1 7.1-7.1h210.5c3.9 0 7.1 3.2 7.1 7.1v33.4c0 3.9-3.2 7.1-7.1 7.1H10.7zm219.4-7.1V10.8c0-4.9-3.9-8.8-8.8-8.8H10.7c-4.9 0-8.8 4-8.8 8.8v33.4c0 4.9 3.9 8.8 8.8 8.8h210.5c4.9 0 8.9-3.9 8.9-8.8z" style="fill-rule:evenodd;clip-rule:evenodd;fill:#c0c9cf"/><path d="M176.7 15.7c-3.8 3.5-5.1 8.9-4 14.3 1 3.7 3 7.9 7 9.3 4.1 1.7 9.3.9 12.9-1.4.5-.5 1.5-.8 1.5-1.7-.4-.5-.8-1.4-1.6-1.1-1.4.8-2.8 1.5-4.3 1.8-2.5.4-5.1-.2-6.7-2.1-3.1-4.3-3-11.2-.6-15.8.9-1.7 2.6-2.7 4.4-2.9 2.2-.2 4.4.5 6 2.3 1.1.6 1.2 2.6 2.8 2.1l.5-.2c-.5-2.1-1.3-4.2-1.8-6.3l-.4-.4c-1.5-.6-2.6.5-4 .6-3.6-1.6-8.7-1.6-11.7 1.5zm-61.2 2V36c0 1.4-1.5 1.1-2.4 1.5-.3.7-.1 1.7.4 2.2h10.2c.7-.4.6-1.4.5-2.1-.6-.8-2 .2-2.3-.9V17.6c.4-.9 2.1-.9 3.2-.7 1.4.8-.4 1.9.3 2.8.7.1 1.8.2 2.4-.3.9-1.9 1.6-3.9 2.2-5.9-.1-.4-.6-.5-.8-.4-1.3-.4-1.7.9-2.3 1.5h-12.7c-.7-.4-.3-1-.6-1.6-.7-.2-1.7-.1-2.4.2-.7 1.3-1.1 2.8-1.8 4.2-.1.7-1 1.4-.3 2 .6 0 1.2 0 1.7-.2.9-1.3 2-2.8 3.8-2.6.3.3.7.8.9 1.1zm54.4 15.6c-.6.4-.7 1.1-1.1 1.7-1.5 2.7-4.5 2.1-7.1 2.2-.3-.1-.4-.4-.5-.7V17.7c.4-.6 1.1-.8 1.6-.7.2-.1.4-.5.3-.9 0-.6-.1-1.1-.6-1.3h-10c-.4.1-.5.6-.5 1.1-.1 1 .9 1.2 1.6 1.3.5.1.9.6.9 1.2V36c-.1 1.4-1.5 1.1-2.4 1.5-.3.7-.1 1.7.4 2.2h13.9l.6 1c.8.3 2 .6 2.6-.2.6-1.7 1.9-4.8 2.5-6.8-.6-.6-1.8-.6-2.2-.4zm-30.6 5.1c0 .5.1 1.1.6 1.3h10.5c.7-.4.6-1.4.5-2.1-.6-.8-2.1.1-2.4-1-2-5.4-5.7-20.2-6.5-21.9h-5.3l-.5.3c-1.9 7.4-4.4 14.5-6.4 21.8-.4.9-1.7.2-2.1 1-.1.6-.1 1.4.3 1.9h6.4c.6-.5.6-1.4.3-2-.4-.5-1-.2-1.6-.4-.2-.2-.4-.3-.3-.6.4-1.4 1.3-4.3 1.3-4.3h6.4s1 4.3 1 4.7c-.2.4-.8.2-1.1.2-1 0-1.1.5-1.1 1.1zm-4.7-8.4 2.8-9.4 2.3 9.4h-5.1zM29.1 41.1c.9-.4 1.7-1.1 2.4-1.8 1.9-2.1 2.5-5.3 1.5-8-.5-2.6-3.4-3.8-5.4-5.2-.1-.4.3-.7.6-.9 2.1-1.9 3.5-4.8 2.3-7.4-.9-2.1-3-3.8-5.3-4.1-5.4-.7-10 1.3-14.2 4.1 0 0-.3.2-.4.7-.1.5 0 1 .3 1.3.5.5 2.2-.8 2.2 0 0 .9 0 11.9.1 17.4-.2.6-.8.5-1.4.6-.4.4-.4 1.1-.3 1.7.5.6 1.2.2 2 .3 5.5-.5 10.1 3.7 15.6 1.3zM21 38.5l-.7-.7-.1-4.7-.2-16.4c1.8-.8 4.6.9 4.8 3.7.5 4-3.4 5.6-4 6.3.6 2.3 3.5 1 4.7 2.6 1.6 1.1 2 3.2 1.6 5.1-.2 1.3-1 2.3-1.9 3.2-1.2.7-2.6 1.4-4.2.9zm69-24.4C83.6 17 81.1 25 84.4 31.9c3.2 6.9 10.9 10.1 17.3 7.2 6.3-2.9 8.8-10.9 5.6-17.8-3.3-6.9-11-10.1-17.3-7.2zm10.7 9.7c2.7 4.6 2.7 9.7-.1 11.3-2.7 1.6-7.1-.9-9.8-5.6-2.7-4.6-2.6-9.7.1-11.3 2.8-1.6 7.2.9 9.8 5.6zm-2.3 22.5c1-.7 2.2-1.6 2.4-2.9.1-.9.2-2.1-.7-2.7-.7-.5-1.8-.5-2.5 0-.6.7-.9 1.5-1 2.4-.4.8-1.1 1.4-2 1.7-1.7.1-3.4-.1-4.9-.8-5.8-3.2-7.9-9.9-13.2-13.8-.7-.5-1.6-.6-2.3-1.4-.2-.3 0-.8.3-.9 2.4-.4 4.6-1.9 5.6-4.3 1.1-3 .6-6.8-1.8-9-4.2-3-10-1.2-14.2.6-1.3.8-3.1 1.2-3.8 2.8-.1.5-.1 1.3.3 1.7 1 .2 1.5-.9 2.3-1.1.2 0 .4-.1.5.1-.1 5.7.4 11.7.2 17.6-.4 1.2-1.8.3-2.4 1.1-.1.8 0 1.6.6 2.1l10.1.1c1.1-.2.7-1.4.6-2.1-.5-.9-2-.1-2.2-1.4l-.1-5.7.2-.3c.6.3 1 .9 1.4 1.4 3.4 4.9 5.2 11 10.9 14.2 4.7 3 11.2 3.5 15.7.6zM70.6 25.5c-.4-2.6-.1-6-.3-8.8.1-.4.4-.7.8-.7 1-.3 1.9.2 2.6.8 1.5 1.8 1.2 5.2.1 7.1l-1.1 1c-.6.5-1.4 1-2.1.6zm126.8 6.4c3.2 6.9 10.9 10.1 17.3 7.2 6.3-2.9 8.8-10.9 5.6-17.8-3.2-6.9-10.9-10.1-17.3-7.2-6.3 2.9-8.8 10.9-5.6 17.8zm16.4-8.1c2.7 4.6 2.6 9.7-.1 11.3-2.7 1.6-7.1-.9-9.8-5.6-2.7-4.6-2.7-9.7.1-11.3 2.7-1.6 7.1.9 9.8 5.6zM36.2 31.9c3.2 6.9 10.9 10.1 17.3 7.2 6.3-2.9 8.8-10.9 5.6-17.8-3.2-6.9-11-10.1-17.3-7.2C35.5 17 33 25 36.2 31.9zm16.4-8.1c2.7 4.6 2.7 9.7-.1 11.3-2.7 1.6-7.1-.9-9.8-5.6-2.7-4.6-2.7-9.7.1-11.3 2.7-1.6 7.1.9 9.8 5.6z" style="fill:#fff"/></svg>

<svg width="232" height="55" viewBox="0 0 232 55" fill="none" xmlns="http://www.w3.org/2000/svg">
<path fill-rule="evenodd" clip-rule="evenodd" d="M229 10.7998V44.1998C229 48.5998 225.4 52.1998 221 52.1998H10.6001C6.2001 52.1998 2.6001 48.5998 2.6001 44.1998V10.7998C2.6001 6.3998 6.2001 2.7998 10.6001 2.7998H221.1C225.5 2.7998 229 6.3998 229 10.7998Z" fill="#CF112D"/>
<path fill-rule="evenodd" clip-rule="evenodd" d="M10.6999 51.3C6.7999 51.3 3.5999 48.1 3.5999 44.2V10.8C3.5999 6.9 6.7999 3.7 10.6999 3.7H221.2C225.1 3.7 228.3 6.9 228.3 10.8V44.2C228.3 48.1 225.1 51.3 221.2 51.3H10.6999V51.3ZM230.1 44.2V10.8C230.1 5.9 226.2 2 221.3 2H10.6999C5.7999 2 1.8999 6 1.8999 10.8V44.2C1.8999 49.1 5.7999 53 10.6999 53H221.2C226.1 53 230.1 49.1 230.1 44.2V44.2Z" fill="#C0C9CF"/>
<path d="M176.7 15.7C172.9 19.2 171.6 24.6 172.7 30C173.7 33.7 175.7 37.9 179.7 39.3C183.8 41 189 40.2 192.6 37.9C193.1 37.4 194.1 37.1 194.1 36.2C193.7 35.7 193.3 34.8 192.5 35.1C191.1 35.9 189.7 36.6 188.2 36.9C185.7 37.3 183.1 36.7 181.5 34.8C178.4 30.5 178.5 23.6 180.9 19C181.8 17.3 183.5 16.3 185.3 16.1C187.5 15.9 189.7 16.6 191.3 18.4C192.4 19 192.5 21 194.1 20.5L194.6 20.3C194.1 18.2 193.3 16.1 192.8 14L192.4 13.6C190.9 13 189.8 14.1 188.4 14.2C184.8 12.6 179.7 12.6 176.7 15.7V15.7ZM115.5 17.7V36C115.5 37.4 114 37.1 113.1 37.5C112.8 38.2 113 39.2 113.5 39.7H123.7C124.4 39.3 124.3 38.3 124.2 37.6C123.6 36.8 122.2 37.8 121.9 36.7V17.6C122.3 16.7 124 16.7 125.1 16.9C126.5 17.7 124.7 18.8 125.4 19.7C126.1 19.8 127.2 19.9 127.8 19.4C128.7 17.5 129.4 15.5 130 13.5C129.9 13.1 129.4 13 129.2 13.1C127.9 12.7 127.5 14 126.9 14.6H114.2C113.5 14.2 113.9 13.6 113.6 13C112.9 12.8 111.9 12.9 111.2 13.2C110.5 14.5 110.1 16 109.4 17.4C109.3 18.1 108.4 18.8 109.1 19.4C109.7 19.4 110.3 19.4 110.8 19.2C111.7 17.9 112.8 16.4 114.6 16.6C114.9 16.9 115.3 17.4 115.5 17.7V17.7ZM169.9 33.3C169.3 33.7 169.2 34.4 168.8 35C167.3 37.7 164.3 37.1 161.7 37.2C161.4 37.1 161.3 36.8 161.2 36.5V17.7C161.6 17.1 162.3 16.9 162.8 17C163 16.9 163.2 16.5 163.1 16.1C163.1 15.5 163 15 162.5 14.8H152.5C152.1 14.9 152 15.4 152 15.9C151.9 16.9 152.9 17.1 153.6 17.2C154.1 17.3 154.5 17.8 154.5 18.4V36C154.4 37.4 153 37.1 152.1 37.5C151.8 38.2 152 39.2 152.5 39.7H166.4L167 40.7C167.8 41 169 41.3 169.6 40.5C170.2 38.8 171.5 35.7 172.1 33.7C171.5 33.1 170.3 33.1 169.9 33.3V33.3ZM139.3 38.4C139.3 38.9 139.4 39.5 139.9 39.7H150.4C151.1 39.3 151 38.3 150.9 37.6C150.3 36.8 148.8 37.7 148.5 36.6C146.5 31.2 142.8 16.4 142 14.7H136.7L136.2 15C134.3 22.4 131.8 29.5 129.8 36.8C129.4 37.7 128.1 37 127.7 37.8C127.6 38.4 127.6 39.2 128 39.7H134.4C135 39.2 135 38.3 134.7 37.7C134.3 37.2 133.7 37.5 133.1 37.3C132.9 37.1 132.7 37 132.8 36.7C133.2 35.3 134.1 32.4 134.1 32.4H140.5C140.5 32.4 141.5 36.7 141.5 37.1C141.3 37.5 140.7 37.3 140.4 37.3C139.4 37.3 139.3 37.8 139.3 38.4V38.4ZM134.6 30L137.4 20.6L139.7 30H134.6V30ZM29.1 41.1C30 40.7 30.8 40 31.5 39.3C33.4 37.2 34 34 33 31.3C32.5 28.7 29.6 27.5 27.6 26.1C27.5 25.7 27.9 25.4 28.2 25.2C30.3 23.3 31.7 20.4 30.5 17.8C29.6 15.7 27.5 14 25.2 13.7C19.8 13 15.2 15 11 17.8C11 17.8 10.7 18 10.6 18.5C10.5 19 10.6 19.5 10.9 19.8C11.4 20.3 13.1 19 13.1 19.8C13.1 20.7 13.1 31.7 13.2 37.2C13 37.8 12.4 37.7 11.8 37.8C11.4 38.2 11.4 38.9 11.5 39.5C12 40.1 12.7 39.7 13.5 39.8C19 39.3 23.6 43.5 29.1 41.1ZM21 38.5L20.3 37.8L20.2 33.1L20 16.7C21.8 15.9 24.6 17.6 24.8 20.4C25.3 24.4 21.4 26 20.8 26.7C21.4 29 24.3 27.7 25.5 29.3C27.1 30.4 27.5 32.5 27.1 34.4C26.9 35.7 26.1 36.7 25.2 37.6C24 38.3 22.6 39 21 38.5V38.5ZM90 14.1C83.6 17 81.1 25 84.4 31.9C87.6 38.8 95.3 42 101.7 39.1C108 36.2 110.5 28.2 107.3 21.3C104 14.4 96.3 11.2 90 14.1ZM100.7 23.8C103.4 28.4 103.4 33.5 100.6 35.1C97.9 36.7 93.5 34.2 90.8 29.5C88.1 24.9 88.2 19.8 90.9 18.2C93.7 16.6 98.1 19.1 100.7 23.8V23.8ZM98.4 46.3C99.4 45.6 100.6 44.7 100.8 43.4C100.9 42.5 101 41.3 100.1 40.7C99.4 40.2 98.3 40.2 97.6 40.7C97 41.4 96.7 42.2 96.6 43.1C96.2 43.9 95.5 44.5 94.6 44.8C92.9 44.9 91.2 44.7 89.7 44C83.9 40.8 81.8 34.1 76.5 30.2C75.8 29.7 74.9 29.6 74.2 28.8C74 28.5 74.2 28 74.5 27.9C76.9 27.5 79.1 26 80.1 23.6C81.2 20.6 80.7 16.8 78.3 14.6C74.1 11.6 68.3 13.4 64.1 15.2C62.8 16 61 16.4 60.3 18C60.2 18.5 60.2 19.3 60.6 19.7C61.6 19.9 62.1 18.8 62.9 18.6C63.1 18.6 63.3 18.5 63.4 18.7C63.3 24.4 63.8 30.4 63.6 36.3C63.2 37.5 61.8 36.6 61.2 37.4C61.1 38.2 61.2 39 61.8 39.5L71.9 39.6C73 39.4 72.6 38.2 72.5 37.5C72 36.6 70.5 37.4 70.3 36.1L70.2 30.4L70.4 30.1C71 30.4 71.4 31 71.8 31.5C75.2 36.4 77 42.5001 82.7 45.7001C87.4 48.7001 93.9 49.2 98.4 46.3V46.3ZM70.6 25.5C70.2 22.9 70.5 19.5 70.3 16.7C70.4 16.3 70.7 16 71.1 16C72.1 15.7 73 16.2 73.7 16.8C75.2 18.6 74.9 22 73.8 23.9L72.7 24.9C72.1 25.4 71.3 25.9 70.6 25.5ZM197.4 31.9C200.6 38.8 208.3 42 214.7 39.1C221 36.2 223.5 28.2 220.3 21.3C217.1 14.4 209.4 11.2 203 14.1C196.7 17 194.2 25 197.4 31.9V31.9ZM213.8 23.8C216.5 28.4 216.4 33.5 213.7 35.1C211 36.7 206.6 34.2 203.9 29.5C201.2 24.9 201.2 19.8 204 18.2C206.7 16.6 211.1 19.1 213.8 23.8V23.8ZM36.2 31.9C39.4 38.8 47.1 42 53.5 39.1C59.8 36.2 62.3 28.2 59.1 21.3C55.9 14.4 48.1 11.2 41.8 14.1C35.5 17 33 25 36.2 31.9ZM52.6 23.8C55.3 28.4 55.3 33.5 52.5 35.1C49.8 36.7 45.4 34.2 42.7 29.5C40 24.9 40 19.8 42.8 18.2C45.5 16.6 49.9 19.1 52.6 23.8V23.8Z" fill="white"/>
</svg>
